src/svg/activity.svg

<svg xmlns="http://www.w3.org/2000/svg" width="1000" height="1000" viewBox="0 0 1000 1000"><path fill-rule="evenodd" clip-rule="evenodd" fill="#060202" d="M765.691 872.719h-534.1c-88.493 0-160.245-71.751-160.245-160.244v-427.367c0-18.563 3.649-36.041 9.465-52.63h202.132v-107.639h482.747c88.493 0 160.244 71.75 160.244 160.269v427.366c.002 88.494-71.749 160.245-160.243 160.245zm-483.297-533.88c-33.327-.576-55.186-.576-104.167 0l3.288 376.381c0 44.259 22.586 57.171 50.442 57.171 27.853 0 50.437-12.912 50.437-57.171v-376.381zm536.257-109.282c-82.284-1.619-344.324 2.921-426.089 0v432.665c0 59.03-8.738 106.904-93.237 106.904h412.445c59.005 0 106.881-47.874 106.881-106.904v-432.665zm-371.815 323.409h320.121v102.706h-320.121v-102.706zm0-213.393h320.121v102.68h-320.121v-102.68z"/></svg>

<?xml version="1.0" encoding="utf-8"?>
<!-- Generator: Adobe Illustrator 16.0.0, SVG Export Plug-In . SVG Version: 6.00 Build 0)  -->
<!DOCTYPE svg PUBLIC "-//W3C//DTD SVG 1.1//EN" "http://www.w3.org/Graphics/SVG/1.1/DTD/svg11.dtd">
<svg version="1.1" id="Layer_1" xmlns="http://www.w3.org/2000/svg" xmlns:xlink="http://www.w3.org/1999/xlink" x="0px" y="0px"
	 width="1000px" height="1000px" viewBox="0 0 1000 1000" enable-background="new 0 0 1000 1000" xml:space="preserve">
<path fill-rule="evenodd" clip-rule="evenodd" fill="#060202" d="M765.691,872.719h-534.1c-88.493,0-160.245-71.751-160.245-160.244
	V285.108c0-18.563,3.649-36.041,9.465-52.63h202.132V124.839h482.747c88.493,0,160.244,71.75,160.244,160.269v427.366
	C925.936,800.968,854.185,872.719,765.691,872.719L765.691,872.719z M282.394,338.839c-33.327-0.576-55.186-0.576-104.167,0
	l3.288,376.381c0,44.259,22.586,57.171,50.442,57.171c27.853,0,50.437-12.912,50.437-57.171V338.839L282.394,338.839z
	 M818.651,229.557c-82.284-1.619-344.324,2.921-426.089,0v432.665c0,59.03-8.738,106.904-93.237,106.904h412.445
	c59.005,0,106.881-47.874,106.881-106.904V229.557L818.651,229.557z M446.836,552.966h320.121v102.706H446.836V552.966
	L446.836,552.966z M446.836,339.573h320.121v102.68H446.836V339.573L446.836,339.573z"/>
</svg>
